X: 4
T: Tommy Peoples'
R: mazurka
M: 3/4
L: 1/8
K: Dmaj
|:D>F|A2 F>A d>c|B2 G>B e>f|g>e c2 A2|B>A F2 D>F| A2 F>A d>c|B>G B2 e>f|g>e c>g f>e|d4:||:f>g|a>f d>F A>d|(3cdc B2 e>f|g>e c>A B>c|(3BcB A2 f>g|  a2 f>d A>d|c2 B2 e>f|g>e c>g f>e|1 d3 e:|2 d4||


Tune 1323	Setting 14664

